!!!!SEGMENT: pl-cz--ii-87--003-006_grim-jozef--msza-druga-sanctus.krn
!!!cenid: 18xx:1185
!!!COM: Grim, Józef
!!!COM-rismID: pe30003883
!!!CDT: ~1800-~1899
!!!CNT:
!!!OPR: Msza druga
!!!OTL: Sanctus
!!!OMV: 006
!!!PDT: 1888
!!!AGN: Sacred; Mass
!!!YEC: Copyright 2022 Narodowy Instytut Fryderyka Chopina (https://polishscores.org)
!!!YEM: License CC-BY-4.0 (https://creativecommons.org/licenses/by/4.0)
!!!SMS-siglum: PL-CZ
!!!SMS-shelfmark: II-87
!!!SMS-shelfwork: 003-006 M
!!!SMS-variant:
!!!SMS-altvar:
!!!NIFC-rismSourceID: 300033223
!!!NIFC-rismChildID: 300033226
!!!NIFC-islandoraID: pl-cz:33881
!!!URL-pdf-islandora: https://repozytorium.nifc.pl/islandora/object/pl-cz%3A33881/datastream/PDF/view
!!!URL-scan: https://polish.musicsources.pl/pl/lokalizacje/galeria/rekopisy/6814/1 @EN{Scan on Polish Music Sources Website} @PL{Skany w portalu Dziedzictwo Muzyki Polskiej w otwartym dostępie}
!!!IIIF:
!!!ONB-nifc: UWAGA: części Mszy: Kirie, Gloria, Graduale, Credo, Offertorium, Sanctus, Po podniesieniu, Agnus
!!!AIN: 1 organ 1 vox
!!!key: C
!!!OMD: Adagio
**kern	**kern	**dynam	**kern	**text	**dynam
*part2	*part2	*	*part1	*	*
*staff3	*staff2	*	*staff1	*	*
*I"Organ	*I"Organ	*	*I"Głos	*	*
*Iorgan	*Iorgan	*	*Ivox	*	*
*ICklav	*ICklav	*	*ICvox	*	*
*IGacmp	*IGacmp	*	*IGsolo	*	*
*clefF4	*clefG2	*	*clefG2	*	*
*k[]	*k[]	*	*k[]	*	*
*C:	*C:	*	*C:	*	*
*M4/4	*M4/4	*	*M4/4	*	*
*met(c)	*met(c)	*	*met(c)	*	*
=1	=1	=1	=1	=1	=1
*	*^	*	*^	*	*
!	!	!	!	!	!	!	!LO:DY:b:rj
2C/	2cc/	2g 2e\	.	2cc/	2e\	Swię-	p
2E\	2b/	2c\	.	2b/	2g\	-ty	.
=2	=2	=2	=2	=2	=2	=2	=2
2F\	2a 2f/	2c\	.	2a/	2c\	swię-	.
2E\	2cc 2g/	2ryy	.	2cc/	2c\	-ty	.
=3	=3	=3	=3	=3	=3	=3	=3
2A 2D\	2.f/	2c\	.	2f/	2c\	swię-	.
2G 2GG\	.	2B\	.	(4f/	2B\	-ty	.
.	4e/	.	.	4g/)	.	.	.
=4	=4	=4	=4	=4	=4	=4	=4
1G 1C	2f 2d/	2ryy	.	2f/	2d\	swię-	.
.	2e;/	2c\	.	2e;/	2c\	-ty!	.
=5	=5	=5	=5	=5	=5	=5	=5
*	*Xbrackettup	*	*	*	*	*	*
!	!LO:TUP:a:problem=klamra łukowa	!	!	!	!	!	!
!	!LO:N:vis=6	!	!	!	!	!	!
4C\	12e/	4ryy	.	2ee/	2g\	Bóg	.
!	!LO:N:vis=6	!	!	!	!	!	!
.	12g/	.	.	.	.	.	.
!	!LO:N:vis=6	!	!	!	!	!	!
.	12cc/	.	.	.	.	.	.
!	!LO:N:vis=2	!LO:N:vis=2	!	!	!	!	!
4c\	4ee/	[2.g	.	.	.	.	.
2B\	2dd	.	.	2dd/	2g\	wszech-	.
=6	=6	=6	=6	=6	=6	=6	=6
2A\	2cc/	(>4g\]	.	2cc/	(>4g\	-mo-	.
.	.	4f#X\)	.	.	4f#X\)	.	.
2G\	2b/	(>4g\	.	2b/	(>4g\	-cny	.
.	.	4f#\)	.	.	4f#\)	.	.
=7	=7	=7	=7	=7	=7	=7	=7
4AA/	4cc/	4e\	.	4cc/	4e\	nie-	.
4BB/	4b/	4d#X\	.	4b/	4d#X\	-po-	.
!	!LO:N:vis=2	!	!	!	!	!	!
4C/	4a/	4e\	.	2a/	4e\	-ję-	.
4D/	4f/	8d#\L	.	.	4f#X\	.	.
.	.	8c\J	.	.	.	.	.
=8	=8	=8	=8	=8	=8	=8	=8
2GG/	1g	2B\	.	2g/	2g\	-ty	.
!	!	!LO:TUP:a:problem=klamra łukowa	!	!	!	!	!
2G\	.	6d 6B\	.	2r	2ryy	.	.
.	.	6e 6c\	.	.	.	.	.
.	.	6fn 6d\	.	.	.	.	.
=9	=9	=9	=9	=9	=9	=9	=9
*	*	*^	*	*	*	*	*
2C/	2.g/	2e/	1c	.	2g/	2e\	Swię-	.
2E\	.	2g\	.	.	4g/	2g\	-ty	.
.	4cc/	.	.	.	4cc/	.	.	.
*	*	*v	*v	*	*	*	*	*
!!LO:LB:g=original
=10	=10	=10	=10	=10	=10	=10	=10
2F\	2cc 2a/	2c\	.	2cc/	2a\	w zgo-	.
4F\	2a/	4f 4c\	.	4a/	4f\	-dnych	.
4E-X\	.	4g 4c#X\	.	4r	4ryy	.	.
=11	=11	=11	=11	=11	=11	=11	=11
*	*	*^	*	*	*	*	*
!	!LO:N:vis=2	!	!	!	!	!	!	!
2D\	2.a/	2f\	[<1d	.	2a/	2f#X\	wiel-	.
2F#X\	.	2a\	.	.	4a/	2a\	-bmy	.
.	4dd/	.	.	.	4dd/	.	.	.
*	*	*v	*v	*	*	*	*	*
=12	=12	=12	=12	=12	=12	=12	=12
2.G\	2dd 2b/	1d]	.	2dd/	2b\	gło-	.
.	2b 2g;/	.	.	2b;/	2g\	-sy	.
4Fn\	.	.	.	.	.	.	.
=13	=13	=13	=13	=13	=13	=13	=13
*	*	*^	*	*	*	*	*
!	!	!	!	!LO:DY:rj	!	!	!	!
1E	2cc/	2g\	1c	f	2cc/	2g\	Bóg	.
.	2b/	2g\	.	.	2b/	2g\	za-	.
*	*	*v	*v	*	*	*	*	*
=14	=14	=14	=14	=14	=14	=14	=14
2F\	4a/	4f\	.	4a/	4f\	-stę-	.
.	4b/	4a-X 4d\	.	4b/	4a-X\	-pow	.
4E\	4cc/	4g 4c\	.	4cc/	4g\	swię-	.
4F#X\	4dd/	4cc 4an\	.	4dd/	4cc\	-ty	.
=15	=15	=15	=15	=15	=15	=15	=15
*	*	*^	*	*	*	*	*
2G\	2ee/	[<2cc\	2g\	.	(2ee/	4cc\	Swię-	.
.	.	.	.	.	.	4g\	.	.
2GG/	2dd/	4cc\]	2f\	.	2dd/)	2f\	.	.
.	.	4b\	.	.	.	.	.	.
*	*	*v	*v	*	*	*	*	*
*	*v	*v	*	*	*	*	*
=16	=16	=16	=16	=16	=16	=16
1C	1cc 1g 1e	.	2cc/	2e\	[-ty]	.
.	.	.	2r	2ryy	.	.
*	*	*	*v	*v	*	*
=||	=||	=||	=||	=||	=||
*-	*-	*-	*-	*-	*-
!!!system-decoration: <s1>(s2,s3)
!!!RDF**kern: > = above
!!!RDF**kern: < = below
!!!ENC: Tomasz Grochalski
!!!END: 2020-11-07
!!!ENC: Marta Lawrence
!!!END: 2021-11-14
